X: 13737
T: Forest Wedding
R: jig
M: 6/8
K: Dminor
|:D3 D2E|FED D2D|G3 G2A|BAG G2G|A3 A2^c|
e3 e2^c|1 dfe dcB|AGF E=C^C:|2 d2f ed^c|d3 d2e||
|:f3 f2g|fed d2A|B3 B2c|BAG G2A|
[1 e3 e2f|g3 g2e|fed edc|dcB Ade:|
[2 e3 e2d|^c3 ^cde|d2f e2^c|d3 d3||

